X:06
T: Vals Venezolano No. 2 (Andreina)
C: Antonio Lauro
O: Venezuala, South America
I: Classical Guitar piece
S: Gerald Jones to CoMandoList TOW
R: Waltz
L: 1/8
Q: 200
M: 3/4
K: G
B^c^def |: "Em"a3g fg | fe ^de Be | "Am"d3c BA | ^GA cB ^AB | "B7"e^d =d^d gf | =f^f c'3b |
"Em"a3g fe | "B7"^dc BA GF | "Em"a3g fg | fe ^de Be | "Am"d3c BA | ^GA cB dc | "B7"B^A B^c ^de |
fg ab ^c'^d' | "Em"e'^a bc' bg |1 eB ^c^d ef :|2 ee' bg eB |: "D"d2 ce zc | dc ze zc |
"G"d2 Be zB | db ge BG | "B7"A^D ^zc z^D | B^D ^zA z^D | "Em"GG, B,E GB | eB ^c^d ef |
a3g fg | fe ^de Be | "Am"d3c BA | ^GA cB dc | "B7"B^A B^c ^de | fg ab ^c'^d' | "Em"e'^a bc' bg |
|1 ee' bg eB :|2 e6 |
